packages/core/src/svgs/tokens/branded/ECOX.svg

<svg width="24" height="24" viewBox="0 0 24 24" fill="none" xmlns="http://www.w3.org/2000/svg">
<path fill-rule="evenodd" clip-rule="evenodd" d="M12 20.2353C16.6705 20.2353 20.2353 16.6705 20.2353 12C20.2353 7.3294 16.6705 3.7647 12 3.7647C7.3294 3.7647 3.7647 7.3294 3.7647 12C3.7647 16.6705 7.3294 20.2353 12 20.2353ZM12 22C14.6522 22 17.1957 20.9464 19.0711 19.071C20.9464 17.1957 22 14.6522 22 12C22 9.34785 20.9464 6.80429 19.0711 4.92892C17.1957 3.05357 14.6522 2 12 2C9.34784 2 6.80429 3.05357 4.92892 4.92892C3.05357 6.80429 2 9.34785 2 12C2 14.6522 3.05357 17.1957 4.92892 19.071C6.80429 20.9464 9.34784 22 12 22Z" fill="#021540"/>
<path d="M5.96489 19.6471C7.77288 19.446 9.4448 18.5901 10.665 17.241C11.8852 15.8918 12.5694 14.1426 12.5885 12.3236C12.5885 8.2824 9.26486 5.00005 5.14724 4.94122C4.62372 5.44123 4.16489 5.99416 3.76489 6.58828C4.17666 6.50593 4.60018 6.45888 5.03549 6.45888C8.34724 6.45888 11.0354 9.08239 11.0354 12.3236C11.0264 13.1559 10.8423 13.977 10.4949 14.7334C10.1477 15.4898 9.64491 16.1647 9.01962 16.714C8.39429 17.2633 7.66031 17.6747 6.86542 17.9217C6.07055 18.1686 5.23259 18.2455 4.40606 18.147C4.87078 18.7059 5.38842 19.206 5.96489 19.6471Z" fill="#021540"/>
<path d="M20.2352 6.64709C19.371 6.42231 18.467 6.39859 17.5922 6.57779C16.7176 6.75699 15.8956 7.13432 15.1896 7.68078C14.4834 8.22725 13.912 8.9283 13.5192 9.73015C13.1264 10.5319 12.9225 11.413 12.9234 12.3059C12.9217 13.1441 13.1003 13.9728 13.4473 14.7358C13.7943 15.4988 14.3013 16.1782 14.9342 16.7279C15.5669 17.2775 16.3107 17.6846 17.1147 17.9214C17.9188 18.1581 18.7642 18.2191 19.594 18.1001C19.1352 18.6766 18.6116 19.1941 18.0351 19.6471C16.2171 19.4659 14.5317 18.6142 13.3073 17.2582C12.0828 15.9022 11.407 14.1388 11.4116 12.3118C11.4093 11.3373 11.6006 10.3719 11.9745 9.47197C12.3485 8.57203 12.8977 7.75541 13.5902 7.06959C14.2825 6.38377 15.1043 5.84242 16.0078 5.47703C16.9113 5.11165 17.8784 4.92951 18.8528 4.9412C19.3764 5.45886 19.841 6.02944 20.2352 6.64709Z" fill="#021540"/>
<path d="M4.35278 18.1529C4.79396 14.6882 8.0469 12.0001 11.9881 12.0001C16.0115 12.0001 19.3116 14.8001 19.6469 18.3647C19.1646 18.8353 18.6293 19.2706 18.0469 19.6471C18.0763 19.4235 18.094 19.1941 18.094 18.9648C18.094 15.9059 15.3586 13.4353 11.9881 13.4353C8.6175 13.4353 5.8822 15.9059 5.8822 18.9648C5.8822 19.1412 5.89396 19.3177 5.91161 19.4824C5.34766 19.0941 4.82528 18.6485 4.35278 18.1529Z" fill="#021540"/>
<path d="M17.841 4.35297C17.9939 4.82356 18.0763 5.31768 18.0763 5.82356C18.0763 8.79415 15.3527 11.1941 11.9999 11.1941C8.6469 11.1941 5.92338 8.79415 5.92338 5.82356C5.92338 5.3765 5.9822 4.9412 6.09984 4.52943C5.45867 4.9412 4.87044 5.42944 4.35278 5.96474C4.43514 9.6353 7.82337 12.5882 11.9999 12.5882C16.2233 12.5882 19.6469 9.55885 19.6469 5.82356V5.7412C19.0999 5.21103 18.4939 4.74525 17.841 4.35297Z" fill="#021540"/>
</svg>

<svg xmlns="http://www.w3.org/2000/svg" width="24" height="24" fill="none" viewBox="0 0 24 24">
    <path fill="#021540" fill-rule="evenodd" d="M12 20.235c4.67 0 8.235-3.564 8.235-8.235S16.671 3.765 12 3.765 3.765 7.329 3.765 12 7.329 20.235 12 20.235M12 22a10 10 0 1 0 0-20 10 10 0 0 0 0 20" clip-rule="evenodd"/>
    <path fill="#021540" d="M5.965 19.647a7.45 7.45 0 0 0 6.624-7.323c0-4.042-3.324-7.324-7.442-7.383a10 10 0 0 0-1.382 1.647 6.5 6.5 0 0 1 1.27-.13c3.312 0 6 2.624 6 5.866a5.927 5.927 0 0 1-6.629 5.823 9.6 9.6 0 0 0 1.559 1.5"/>
    <path fill="#021540" d="M20.235 6.647a5.842 5.842 0 0 0-7.312 5.659 5.84 5.84 0 0 0 6.671 5.794 9.5 9.5 0 0 1-1.559 1.547 7.353 7.353 0 0 1-6.623-7.335 7.36 7.36 0 0 1 4.596-6.835 7.4 7.4 0 0 1 2.845-.536 10 10 0 0 1 1.382 1.706"/>
    <path fill="#021540" d="M4.353 18.153C4.794 14.688 8.047 12 11.988 12c4.024 0 7.324 2.8 7.659 6.365-.482.47-1.018.906-1.6 1.282a5 5 0 0 0 .047-.682c0-3.06-2.735-5.53-6.106-5.53s-6.106 2.47-6.106 5.53c0 .176.012.353.03.517a10 10 0 0 1-1.56-1.33"/>
    <path fill="#021540" d="M17.841 4.353c.153.47.235.965.235 1.47 0 2.971-2.723 5.371-6.076 5.371s-6.077-2.4-6.077-5.37c0-.447.06-.883.177-1.295a9.8 9.8 0 0 0-1.747 1.436c.082 3.67 3.47 6.623 7.647 6.623 4.223 0 7.647-3.03 7.647-6.764V5.74a10 10 0 0 0-1.806-1.388"/>
</svg>
